X: 30430
T: Old Torn Petticoat, The
R: reel
M: 4/4
K: Adorian
cABG AGEF|~G2BG dGBd|cABG AGEF|GABG ~A2AB|
cABG AGEF|~G2GB dG (3Bcd|cABG AGEF|GABG ~A2AB||
cdef g2eg|aged cA~A2|(3Bcd ed gedg|eaag abga|
bg~g2 agef|gedc BG~G2|cABG AGEF|GABG ~A2AB:|

